src/apps/scalable/glade.svg

<?xml version="1.0" encoding="UTF-8" standalone="no"?>
<svg
   width="64"
   height="64"
   version="1.1"
   viewBox="0 0 16.933 16.933"
   id="svg24"
   sodipodi:docname="glade.svg"
   inkscape:version="1.2.1 (9c6d41e410, 2022-07-14, custom)"
   xmlns:inkscape="http://www.inkscape.org/namespaces/inkscape"
   xmlns:sodipodi="http://sodipodi.sourceforge.net/DTD/sodipodi-0.dtd"
   xmlns="http://www.w3.org/2000/svg"
   xmlns:svg="http://www.w3.org/2000/svg">
  <sodipodi:namedview
     id="namedview26"
     pagecolor="#ffffff"
     bordercolor="#000000"
     borderopacity="0.25"
     inkscape:showpageshadow="2"
     inkscape:pageopacity="0.0"
     inkscape:pagecheckerboard="0"
     inkscape:deskcolor="#d1d1d1"
     showgrid="false"
     inkscape:zoom="8.8719804"
     inkscape:cx="38.88647"
     inkscape:cy="32.912607"
     inkscape:window-width="1920"
     inkscape:window-height="1019"
     inkscape:window-x="0"
     inkscape:window-y="31"
     inkscape:window-maximized="1"
     inkscape:current-layer="svg24" />
  <defs
     id="defs8">
    <filter
       id="filter1178"
       x="-0.047999482"
       y="-0.047999482"
       width="1.095999"
       height="1.095999"
       color-interpolation-filters="sRGB">
      <feGaussianBlur
         stdDeviation="0.30691668"
         id="feGaussianBlur2" />
    </filter>
    <filter
       id="filter20745"
       x="-0.088262042"
       y="-0.088262042"
       width="1.1765241"
       height="1.1765241"
       color-interpolation-filters="sRGB">
      <feGaussianBlur
         stdDeviation="0.38080906"
         id="feGaussianBlur5" />
    </filter>
    <linearGradient
       id="c"
       x1="32"
       x2="32"
       y1="22"
       y2="54"
       gradientUnits="userSpaceOnUse"
       gradientTransform="matrix(0.26457812,0,0,0.26457812,0.00765,-0.49766928)">
      <stop
         stop-color="#4cde04"
         offset="0"
         id="stop186"
         style="stop-color:#8fbcbb;stop-opacity:1;" />
      <stop
         stop-color="#7ae317"
         offset="1"
         id="stop188"
         style="stop-color:#a3be8c;stop-opacity:1;" />
    </linearGradient>
  </defs>
  <g
     stroke-linecap="round"
     stroke-linejoin="round"
     id="g16">
    <rect
       transform="matrix(.99138 0 0 1 .072989 .0019055)"
       x=".79375"
       y=".90545"
       width="15.346"
       height="15.346"
       rx="3.0526"
       ry="3.0526"
       fill="#000000"
       filter="url(#filter1178)"
       opacity=".15"
       stroke-width="1.2489"
       style="mix-blend-mode:normal"
       id="rect10" />
    <rect
       x=".92604"
       y=".92604"
       width="15.081"
       height="15.081"
       rx="3"
       ry="3"
       fill="#eceff4"
       stroke-width="1.2274"
       id="rect12" />
    <rect
       x=".01215"
       y=".0060174"
       width="16.924"
       height="16.927"
       fill="none"
       opacity=".15"
       stroke-width="1.052"
       id="rect14" />
  </g>
  <g
     fill="#b3b3b3"
     id="g209"
     transform="matrix(0.26457812,0,0,0.26457812,0.00765,-0.49766928)">
    <path
       opacity="0.5"
       d="m 11,16 h 42 v 1 H 11 Z m 0,4 h 42 v 1 H 11 Z m 0,23 h 42 v 1 H 11 Z m 0,4 h 42 v 1 H 11 Z"
       id="path205"
       style="fill:#2e3440;fill-opacity:1" />
    <path
       opacity="0.5"
       d="M 15,14 V 50 H 14 V 14 Z m 35,0 V 50 H 49 V 14 Z"
       id="path207"
       style="fill:#2e3440;fill-opacity:1" />
  </g>
  <path
     d="m 2.124275,13.789549 h 12.69975 V 5.3230493 Z M 12.971978,11.937503 H 8.209572 l 4.762406,-3.1749381 z"
     fill="url(#c)"
     id="path213"
     style="fill:url(#c);stroke-width:0.264578" />
  <circle
     cx="5.6960788"
     cy="6.5136509"
     r="0.52915627"
     fill="none"
     stroke="#c9caca"
     stroke-miterlimit="10"
     id="circle215"
     style="stroke-width:0.264578;stroke:#2e3440;stroke-opacity:0.5;fill:#2e3440;fill-opacity:0" />
  <circle
     cx="5.6960788"
     cy="9.1594315"
     r="0.52915627"
     fill="none"
     stroke="#c9caca"
     stroke-miterlimit="10"
     id="circle217"
     style="stroke-width:0.264578;fill:#2e3440;fill-opacity:0;stroke:#2e3440;stroke-opacity:0.5" />
</svg>

<svg width="64" height="64" version="1.1" viewBox="0 0 16.933 16.933" xmlns="http://www.w3.org/2000/svg">
 <defs>
  <filter id="filter1178" x="-.047999" y="-.047999" width="1.096" height="1.096" color-interpolation-filters="sRGB">
   <feGaussianBlur stdDeviation="0.30691668"/>
  </filter>
  <linearGradient id="c" x1="32" x2="32" y1="22" y2="54" gradientTransform="matrix(.26458 0 0 .26458 .00765 -.49767)" gradientUnits="userSpaceOnUse">
   <stop stop-color="#8fbcbb" offset="0"/>
   <stop stop-color="#a3be8c" offset="1"/>
  </linearGradient>
 </defs>
 <g stroke-linecap="round" stroke-linejoin="round">
  <rect transform="matrix(.99138 0 0 1 .072989 .0019055)" x=".79375" y=".90545" width="15.346" height="15.346" rx="3.0526" ry="3.0526" filter="url(#filter1178)" opacity=".15" stroke-width="1.2489" style="mix-blend-mode:normal"/>
  <rect x=".92604" y=".92604" width="15.081" height="15.081" rx="3" ry="3" fill="#eceff4" stroke-width="1.2274"/>
  <rect x=".01215" y=".0060174" width="16.924" height="16.927" fill="none" opacity=".15" stroke-width="1.052"/>
 </g>
 <g transform="matrix(.26458 0 0 .26458 .00765 -.49767)" fill="#2e3440">
  <path d="m11 16h42v1h-42zm0 4h42v1h-42zm0 23h42v1h-42zm0 4h42v1h-42z" opacity=".5"/>
  <path d="m15 14v36h-1v-36zm35 0v36h-1v-36z" opacity=".5"/>
 </g>
 <g stroke-width=".26458">
  <path d="m2.1243 13.79h12.7v-8.4665zm10.848-1.852h-4.7624l4.7624-3.1749z" fill="url(#c)"/>
  <circle cx="5.6961" cy="6.5137" r=".52916" fill="none" fill-opacity="0" stroke="#2e3440" stroke-miterlimit="10" stroke-opacity=".5"/>
  <circle cx="5.6961" cy="9.1594" r=".52916" fill="none" fill-opacity="0" stroke="#2e3440" stroke-miterlimit="10" stroke-opacity=".5"/>
 </g>
</svg>
